cypex/img/main/mainLogo.svg

<svg width="144" height="32" viewBox="0 0 144 32" fill="none" xmlns="http://www.w3.org/2000/svg">
<path d="M15.495 0C6.93731 0 0 7.16345 0 16C0 24.8366 6.93731 32 15.495 32H26V29.4237H15.7576C8.57788 29.4237 2.75758 23.4137 2.75758 16C2.75758 8.58628 8.57788 2.57627 15.7576 2.57627H26V0H15.495Z" fill="white"/>
<path d="M33.7463 9.09048e-07L30 0L36.2727 8H40L33.7463 9.09048e-07Z" fill="white"/>
<path d="M54.07 0L58 7.22935e-06L44.999 17.1584V32H42V16.2034L54.07 0Z" fill="white"/>
<path d="M75.6563 0H62V2.75862H75.1988C79.2408 2.75862 82.125 5.80306 82.125 10.069C82.125 14.3349 79.2408 17.3793 75.1988 17.3793H73.0427V20H75.6563C80.8891 20 85 15.5228 85 9.99999C85 4.47717 80.8891 0 75.6563 0Z" fill="white"/>
<path d="M62 17H65V32H62V17Z" fill="white"/>
<path d="M89 0H112V3H89V0Z" fill="white"/>
<path d="M89 15H112V17H89V15Z" fill="white"/>
<path d="M89 29H112V32H89V29Z" fill="white"/>
<path d="M144 0L120.209 32L117 32L140.71 6.28818e-06L144 0Z" fill="white"/>
<path d="M120.006 5.89651e-06L117 0L123.014 8H126L120.006 5.89651e-06Z" fill="white"/>
<path d="M140.402 32L144 31.9999L131.822 16L130 18.3354L140.402 32Z" fill="white"/>
</svg>

<svg width="144" height="32" fill="none" xmlns="http://www.w3.org/2000/svg"><path d="M15.495 0C6.937 0 0 7.163 0 16s6.937 16 15.495 16H26v-2.576H15.758c-7.18 0-13-6.01-13-13.424s5.82-13.424 13-13.424H26V0H15.495Zm18.251 0H30l6.273 8H40l-6.254-8ZM54.07 0H58L44.999 17.158V32H42V16.203L54.07 0Zm21.586 0H62v2.759h13.199c4.042 0 6.926 3.044 6.926 7.31s-2.884 7.31-6.926 7.31h-2.156V20h2.613C80.89 20 85 15.523 85 10S80.89 0 75.656 0ZM62 17h3v15h-3V17ZM89 0h23v3H89V0Zm0 15h23v2H89v-2Zm0 14h23v3H89v-3Zm55-29-23.791 32H117l23.71-32H144Zm-23.994 0H117l6.014 8H126l-5.994-8Z" fill="#fff"/><path d="M140.402 32H144l-12.178-16L130 18.335 140.402 32Z" fill="#fff"/></svg>
